FINK
CUT[TREUE LIEBE BIS ZUM GRABE]
REG[Europa, Mitteleuropa, Deutschland]
KEY[F0468  16  G 3/4]
MEL[-5_.1  3__3__2_.3  2_1_1__
    1_.3  5__.6_4_5_  3___
    1_.3  2__.2_3_.4#  5__2__
    2_.5  7__.4_6_.4#  5___
    2_3_  4__.2_1_3_  3_2_2__
    2_3_  4__.2_1_3_  3__2__0__
    1_.12_3_4_5_  6__4__
    +1_.6  5__.3_4_.2  1___ //] >>
FCT[Vaterlands -, Heimat - Lied]
